X:1
T:Title
%%score { ( 1 4 ) | ( 2 3 ) }
L:1/8
Q:1/4=108
M:6/4
K:F
V:1 treble nm="Grand Piano"
V:4 treble 
V:2 bass 
V:3 bass 
V:1
 c3 dcB [CFA]2 [CFA]2 [B,EG]2 | [A,F]2 [A,DF]2 [CEG]2 [CFA]4 AB | c2 c2 d2 d2 c2 [Cc][DB] | %3
w: Jay~Deavereaux * * * * * *|||
 [CFA]2 [CFA]2 [B,EG]2 [F,A,F]6 | [CFA]3 [CFA] [CFA]2 [^CGA]2 [CGA]2 [CGA]2 | %5
w: ||
 [FA]3 [FA] [F=B]2 [Fd]2 [Ec]2 _BA | [EB]2 [E=B]2 [Ec]2 [Ee]2 [Ed]2 [Ec]2 | %7
w: ||
 [DEB]2 [CEA]2 [CE_A]2 [CF=A]4 AB | c2 B2 A2 d2 c2 c2 | f2 f2 [Fd]2 d2 c2 c2 | %10
w: |||
 [Ee]2 [Ed]2 [CEB]2 [CFA]2 [CFc]2 [DFB]2 | [CFA]2 [CFA]2 [B,EG]2 [F,A,F]6 | %12
w: ||
 c3 dcB [CFA]2 [CFA]2 [B,EG]2 | [A,F]2 [A,DF]2 [CEG]2 [CFA]4 AB | c2 c2 d2 d2 c2 [Cc][DB] | %15
w: |||
 [CFA]2 [CFA]2 [B,EG]2 [F,A,F]6 | [CFA]3 [CFA] [CFA]2 [^CGA]2 [CGA]2 [CGA]2 | %17
w: ||
 [FA]3 [FA] [F=B]2 [Fd]2 [Ec]2 _BA | [EB]2 [E=B]2 [Ec]2 [Ee]2 [Ed]2 [Ec]2 | %19
w: ||
 [DEB]2 [CEA]2 [CE_A]2 [CF=A]4 AB | c2 B2 A2 d2 c2 c2 | f2 f2 [Fd]2 d2 c2 c2 | %22
w: |||
 [Ee]2 [Ed]2 [CEB]2 [CFA]2 [CFc]2 [DFB]2 | [CFA]2 [CFA]2 [B,EG]2 [F,A,F]6 | c3 dcB A2 A2 [Gc]2 | %25
w: |||
 [Ff]2 [Ff]2 [Fd]2 c4 AB |[M:13/8] c2 B2 A2 d2 c3 [Cc][DB] | %27
w: ||
[M:10/4] [CFA]2 [DFA]2 [B,EG]2 [F,A,F]6 z8 |[M:6/4] [DFB]12 | [CFA]12 |] %30
w: |||
V:2
 [F,A,F]3 [F,B,F][F,F]-[F,DF] F,2 F,2 C,2 | D,2 D,2 C,2 F,4 F,G, | %2
 [A,CF]2 [A,CF]2 [B,F]2 [B,F]2 [A,CF]2[K:bass] A,,B,, | C,2 C,2 C,2 F,,6 | F,3 F, F,2 E,2 E,2 E,2 | %5
 [D,D]3 [D,D] [G,D]2 [G,=B,]2 [C,C]2 [C,C]2 | [C,C]2 [C,C]2 [C,C]2 [C,C]2 [C,B,]2 [C,A,]2 | %7
 C,2 C,2 C,2 F,4 F,G, | [A,CF]2 [G,CE]2 [F,CF]2 [B,F]2 [A,CF]2[K:bass] [F,A,F]2 | %9
 [B,,DF]2 [B,,DF]2 [D,B,]2 [F,B,F]2 [F,A,F]2 [F,A,F]2 | [C,G,]2 [C,G,]2 C,2 F,2 A,,2 B,,2 | %11
 C,2 C,2 C,2 F,,6 | [F,A,F]3 [F,B,F][F,F]-[F,DF] F,2 F,2 C,2 | D,2 D,2 C,2 F,4 F,G, | %14
 [A,CF]2 [A,CF]2 [B,F]2 [B,F]2 [A,CF]2[K:bass] A,,B,, | C,2 C,2 C,2 F,,6 | F,3 F, F,2 E,2 E,2 E,2 | %17
 [D,D]3 [D,D] [G,D]2 [G,=B,]2 [C,C]2 [C,C]2 | [C,C]2 [C,C]2 [C,C]2 [C,C]2 [C,B,]2 [C,A,]2 | %19
 C,2 C,2 C,2 F,4 F,G, | [A,CF]2 [G,CE]2 [F,CF]2 [B,F]2 [A,CF]2[K:bass] [F,A,F]2 | %21
 [B,,DF]2 [B,,DF]2 [D,B,]2 [F,B,F]2 [F,A,F]2 [F,A,F]2 | [C,G,]2 [C,G,]2 C,2 F,2 A,,2 B,,2 | %23
 C,2 C,2 C,2 F,,6 | [F,A,F]3 [F,B,F][F,F]-[F,DF] [F,CF]2 [F,CF]2 [E,C]2 | z6 z4 [CF]2 | %26
[M:13/8][K:treble] [A,CF]2 [G,CE]2 [F,CF]2 [B,F]2 [A,CF]3[K:bass] A,,B,, | %27
[M:10/4] C,2 C,2 C,2 F,,6 z8 |[M:6/4] B,,12 | [F,,F,]12 |] %30
V:3
 z4 .A,2 z6 | x12 | x10[K:bass] x2 | x12 | x12 | x12 | x12 | x12 | x10[K:bass] x2 | x12 | x12 | %11
 x12 | z4 .A,2 z6 | x12 | x10[K:bass] x2 | x12 | x12 | x12 | x12 | x12 | x10[K:bass] x2 | x12 | %22
 x12 | x12 | z4 .A,2 z6 | [B,,D]2 [B,,D]2 [D,B,]2 [F,A,F]4 F,G, | %26
[M:13/8][K:treble] x11[K:bass] x2 |[M:10/4] x20 |[M:6/4] x12 | x12 |] %30
V:4
 x12 | z6 z4 [CF]2 | z6 z4 F2 | x12 | x12 | z6 z4 E2 | x12 | z6 z4 [CF]2 | x12 | x12 | x12 | x12 | %12
 x12 | z6 z4 [CF]2 | z6 z4 F2 | x12 | x12 | z6 z4 E2 | x12 | z6 z4 [CF]2 | x12 | x12 | x12 | x12 | %24
 x12 | x12 |[M:13/8] z z z z z z z z z z2 F2 |[M:10/4] x20 |[M:6/4] x12 | x12 |] %30

